X:1
T:The Wayside Cross
T:The Wayside Cross
T:Horatio Richmond Palmer
T:C. L. St. John, 1884
T:Public Domain Courtesy of the Cyber Hymnal™
T:Public Domain Courtesy of the Cyber Hymnal™
C:Horatio Richmond Palmer
Z:Public Domain
Z:Courtesy of the Cyber Hymnal™
%%score ( 1 2 ) ( 3 4 )
L:1/8
M:3/4
K:Bb
V:1 treble 
V:2 treble 
V:3 bass 
V:4 bass 
V:1
 (FF) | B3 B B2 | (B B3) DE | F2 G3 F | [DB]4 BB | c2 c3 c | d2 c3 A | G2 A3 G | F4 FF | %9
w: 1.~“Which *|way shall I|take?” * shouts a|voice in the|night, “I’m a|pil- grim a-|wear- ied, and|spent is my|light; And I|
w: 2.~“Which *|way shall I|take * for the|bright gold- en|span Th- at|bridg- es the|wa- ters so|safe- ly for|man? To the|
w: 3.~“See~the *|lights from the|palace * i- n|sil- ver- y|lines, How they|pen- cil the|hedg- es and|fruit lad- en|vines— M- y|
 (B B3) BB | d- d3 B2 | A2 (z A) x5 | [B,G]4 (GG) | [GB]3 [FA] [EG]2 | [^CG]2 [DF]3 [DF] | %15
w: seek * for a|palace, * that|rests *|on the *|hill, But~be- tween|us, a stream|
w: right? * To the|left? * ah,|me! *|if I *|knew— The night|is so dark,|
w: fortune! * m- y|all! * for|one *|tan- gled *|gleam That sifts|thro’ the lil-|
 !fermata![A,CF]2 [B,DF]2 !fermata![CEF]2 | [B,DF-]4 ||"^Refrain" [FBd]2 | [Bd]2 [Bd]3 [Bd] | %19
w: li- eth sul-|len||and chill.” *|
w: and the pass-|ers||so few.” *|
w: ies, and wastes|on||the stream.” *|
 [Bd]4 [Bd][Bd] | [Be]2 [Be]2 [ce]2 | [Bd]2 z2 [Bd][Bd] | [Ac]2 [Ac]2 [Ac]2 | [Ac]4 ([Ac][Bd]) | %24
w: |||||
w: |||||
w: |||||
 [ce] [Bd]3 [Ac]2 | [Bd]2 z2 [Bd][ce] | [df]2 [df]2 [df]2 | [df]4 [ce][Bd] | [Bg]2 [eg]3 [eg] | %29
w: |||||
w: |||||
w: |||||
 [df]4 [Bd]2 | [df] [ce]3 [ce]2 | [ce] [Bd]3 [Bd]2 | [Ac]2 [Bd]2 !fermata![ce]2 | %33
w: ||||
w: ||||
w: ||||
 !fermata![Bd]4 [Bd]2 | B B3 [Bc]2 | [Bd] [Bd]3 [Bd]2 | [Bd] [Ac]3 !fermata![ce]2 | %37
w: ||||
w: ||||
w: ||||
 !fermata![Bd]4 |] %38
w: |
w: |
w: |
V:2
 F2 | [DB]6 | [DB]4 DE | F2 G3 F | x6 | [CFA]6 | [CFA]4 x2 | =E6 | F4 FF | [DB]6 | [DB]6 | %11
 D4 (B3 C2) | x6 | x6 | x6 | x6 | x4 || x2 | x6 | x6 | x6 | x6 | x6 | x6 | x6 | x6 | x6 | x6 | x6 | %29
 x6 | x6 | x6 | x6 | x6 | B B3 x2 | x6 | x6 | x4 |] %38
V:3
 z2 | [B,,F,]6- | [B,,F,]4 D,E, | F,2 G,3 F, | [B,,F,]4 z2 | [F,,F,]6- | [F,,F,]4 z2 | C2- C3 B, | %8
w: |~|* ~ ~|~ ~ ~|~|~||~ * ~|
 [F,A,]4 z2 | [B,,F,]6 | [B,,F,]6 | ^F,2 G,3 F, x3 | [G,,G,]4 z2 | E,6- | E,2 F,4- | F,6 | %16
w: ~|~|~|~ ~ ~|~|~|~ ~||
 [B,,F,]4 || [B,,F,]2 | [B,,F,]2 [B,,F,]3 [B,,F,] | [B,,F,]4 [B,,F,][B,,F,] | %20
w: ~|~|~ Near, near|thee, my son,|
 [E,G,]2 [E,G,]2 [E,G,]2 | [B,,F,]2 z2 [B,,F,][B,,F,] | F,2 F,2 F,2 | F,4 F,2 | F, F,3 F,2 | %25
w: is the old|way- side cross,|Like a gray|fri- ar|cowled, in li-|
 [B,,F,]2 z2 [B,,F,][B,,F,] | [B,,B,]2 [B,,B,]2 [B,,B,]2 | [B,,B,]4 [C,F,][D,F,] | %28
w: chens and moss;|And its cross-|beam will point|
 [E,B,]2 [E,B,]3 [E,B,] | [E,B,]4 [B,,F,]2 | F, F,3 F,2 | [B,,F,] [D,F,]3 [D,F,]2 | %32
w: to the bright|gold- en|span, That bridg-|es the wa-|
 [F,,F,]2 [F,,F,]2 [F,,F,]2 | [B,,F,]4 [B,,F,]2 | [E,G,] [E,G,]3 [E,G,]2 | %35
w: ters so safe-|ly for|man; That bridg-|
 [B,,F,] [B,,F,]3 [B,,F,]2 | F, F,3 [F,,F,A,]2 | [B,,F,]4 |] %38
w: es the wa-|ters so safe-|ly|
V:4
 x2 | x6 | x4 D,E, | F,2 G,3 F, | x6 | x6 | x6 | C,6 | x6 | x6 | x6 | D,6 x3 | x6 | E,,4 G,,2 | %14
 B,,6 | .F,,2 .F,,2 .F,,2 | x4 || x2 | x6 | x6 | x6 | x6 | F,2 F,2 F,2 | F,4 F,2 | F, F,3 F,2 | %25
 x6 | x6 | x6 | x6 | x6 | F, F,3 F,2 | x6 | x6 | x6 | x6 | x6 | F, F,3 x2 | x4 |] %38

